svg/u1f302.svg

<svg viewBox="0 0 128 128" xmlns="http://www.w3.org/2000/svg">
  <linearGradient id="SVGID_1_" gradientTransform="matrix(1 0 0 -1 0 128)" gradientUnits="userSpaceOnUse" x1="-407.1997" x2="-441.1397" y1="86.269" y2="36.526">
    <stop offset="0" stop-color="#BA68C8"/>
    <stop offset="1" stop-color="#9C27B0"/>
  </linearGradient>
  <polygon points="-424.17,66.61 -424.17,66.61 -424.17,66.6 " fill="url(#SVGID_1_)"/>
  <path d="M-424.86,65.91l0.99,0.3c0.56,0.17,1.16-0.16,1.33-0.73l1.19-4.04c0.17-0.57-0.15-1.19-0.72-1.36 l-0.99-0.3c-0.56-0.17-1.16,0.16-1.33,0.73l-1.19,4.04C-425.74,65.13-425.42,65.74-424.86,65.91z" fill="#616161"/>
  <linearGradient id="SVGID_2_" gradientTransform="matrix(1 0 0 -1 0 128)" gradientUnits="userSpaceOnUse" x1="144.3575" x2="110.4175" y1="374.5085" y2="324.7655">
    <stop offset="0" stop-color="#BA68C8"/>
    <stop offset="1" stop-color="#9C27B0"/>
  </linearGradient>
  <polygon points="127.39,-221.63 127.39,-221.63 127.39,-221.64 " fill="url(#SVGID_2_)"/>
  <path d="M126.7-222.33l0.99,0.3c0.56,0.17,1.16-0.16,1.33-0.73l1.19-4.04c0.17-0.57-0.15-1.19-0.72-1.36 l-0.99-0.3c-0.56-0.17-1.16,0.16-1.33,0.73l-1.19,4.04C125.82-223.11,126.14-222.5,126.7-222.33z" fill="#616161"/>
  <g>
    <g>
      <polygon points="37.91,21.93 80.87,69.71 74.87,74.45 32.07,26.8 " fill="#6AA5AD"/>
      <path d="M113.94,105.42c0.64,0.44,7.21,8.09,8.69,9.67c2.19,2.33,1.51,5.68-0.37,7.25 c-2.46,2.05-5.18,0.69-6.56-0.73s-8.74-9.7-8.81-9.81c-0.68-0.94-0.14-2.89,2.1-4.88C110.6,105.48,113.06,104.82,113.94,105.42z" fill="#6CA4AB"/>
      <g>
        <path d="M61.09,23.71l-6.58-10.3c-5.12,7.2-5.92,22.07-7.16,23.14c-1.24,1.07-16.28-0.12-24.33,4.03 l9.37,7.9c-9.23,0.57-15.12,2.85-15.12,2.85l89.53,61.94c0.76,0.51,3.4,0.67,6.39-1.98s2.44-4.99,2.16-5.53L66.04,9.24 C66.04,9.24,62.94,14.71,61.09,23.71z" fill="#6E62ED"/>
        <path d="M58.45,47.85c-0.99-0.9-1.88-1.92-3.55-1.48c-1.09,0.29-2.3,1.77-0.44,4.48 c0.94,1.37,16.27,19.65,27.31,32.69c0.96,1.14-0.53,2.68-1.71,1.77C64.62,73.4,35.07,50.59,32.39,48.47c0,0-0.42,0.03-1.13,0.08 c-8.57,0.67-13.99,2.77-13.99,2.77l89.53,61.94c0.26,0.17,1,0.53,2.53,0.21c1.97-0.41,3.86-2.19,3.86-2.19 C107.74,105.24,63.89,52.79,58.45,47.85z" fill="#5547F4"/>
        <path d="M32.34,48.43l66.91,59.61l-52.5-36.32C46.76,71.72,41.68,60.75,32.34,48.43z" fill="#004DAE"/>
        <path d="M61.09,23.71l53.99,81.53L66.04,9.24C66.04,9.24,62.94,14.71,61.09,23.71z" fill="#937EF3"/>
        <path d="M68.1,13.28l-2.06-4.04c0,0-3.1,5.47-4.95,14.46l3.34,5.05L68.1,13.28z" fill="#004DAE"/>
        <path d="M36.76,52.36l-4.37-3.9c-9.23,0.57-15.12,2.85-15.12,2.85l4.59,3.18 C25.12,52.96,36.76,52.36,36.76,52.36z" fill="#004DAE"/>
      </g>
      <path d="M16.94,31.57c-2.88,2.74-6.38,1.78-9.65-2.81S0.96,15.56,9.83,8.22C18.95,0.68,26.84,6.11,33.34,14 c4.52,5.49,8.3,9.66,8.18,10.1c-0.12,0.44-6.95,6.63-7.67,6.58c-0.72-0.05-7.67-8.73-9.51-10.68c-1.84-1.95-4.99-6.33-8.64-3.01 c-2.84,2.58-1.13,5.35-0.13,6.51S20.64,28.05,16.94,31.57z" fill="#3F7377"/>
    </g>
    <path d="M54.51,13.4c-5.27,5.85-6.19,21.89-7.43,22.96c-1.24,1.07-17.9-0.03-24.06,4.21l3.22,2.71 c0,0,4.43-1.46,16.28-2.15c4.11-0.24,5.81-0.41,7.25-1.65c1.45-1.25,1.8-2.91,2.67-6.92c0.63-2.93,1.97-12.32,4.22-15.79 L54.51,13.4z" fill="#004DAE"/>
  </g>
</svg>

<svg viewBox="0 0 128 128" xmlns="http://www.w3.org/2000/svg">
  <defs>
    <linearGradient id="SVGID_1_" gradientTransform="matrix(1 0 0 -1 0 0)" gradientUnits="userSpaceOnUse" x1="-407.1997" x2="-441.1397" y1="-41.731" y2="-91.474">
      <stop offset="0" stop-color="#BA68C8"/>
      <stop offset="1" stop-color="#9C27B0"/>
    </linearGradient>
    <linearGradient id="SVGID_2_" gradientTransform="matrix(1 0 0 -1 0 0)" gradientUnits="userSpaceOnUse" x1="144.3575" x2="110.4175" y1="246.5085" y2="196.7655">
      <stop offset="0" stop-color="#BA68C8"/>
      <stop offset="1" stop-color="#9C27B0"/>
    </linearGradient>
  </defs>
  <path d="M37.91,21.93 L80.87,69.71 L74.87,74.45 L32.07,26.8 Z" fill="#6AA5AD"/>
  <path d="M113.94,105.42 C114.58,105.86 121.15,113.51 122.63,115.09 C124.82,117.42 124.14,120.77 122.26,122.34 C119.8,124.39 117.08,123.03 115.7,121.61 C114.32,120.19 106.96,111.91 106.89,111.8 C106.21,110.86 106.75,108.91 108.99,106.92 C110.6,105.48 113.06,104.82 113.94,105.42 Z" fill="#6CA4AB"/>
  <path d="M61.09,23.71 L54.51,13.41 C49.39,20.61 48.59,35.48 47.35,36.55 C46.11,37.62 31.07,36.43 23.02,40.58 L32.39,48.48 C23.16,49.05 17.27,51.33 17.27,51.33 L106.8,113.27 C107.56,113.78 110.2,113.94 113.19,111.29 C116.18,108.64 115.63,106.3 115.35,105.76 L66.04,9.24 C66.04,9.24 62.94,14.71 61.09,23.71 Z" fill="#6E62ED"/>
  <path d="M58.45,47.85 C57.46,46.95 56.57,45.93 54.9,46.37 C53.81,46.66 52.6,48.14 54.46,50.85 C55.4,52.22 70.73,70.5 81.77,83.54 C82.73,84.68 81.24,86.22 80.06,85.31 C64.62,73.4 35.07,50.59 32.39,48.47 C32.39,48.47 31.97,48.5 31.26,48.55 C22.69,49.22 17.27,51.32 17.27,51.32 L106.8,113.26 C107.06,113.43 107.8,113.79 109.33,113.47 C111.3,113.06 113.19,111.28 113.19,111.28 C107.74,105.24 63.89,52.79 58.45,47.85 Z" fill="#5547F4"/>
  <path d="M32.34,48.43 L99.25,108.04 L46.75,71.72 C46.76,71.72 41.68,60.75 32.34,48.43 Z" fill="#004DAE"/>
  <path d="M61.09,23.71 L115.08,105.24 L66.04,9.24 C66.04,9.24 62.94,14.71 61.09,23.71 Z" fill="#937EF3"/>
  <path d="M68.1,13.28 L66.04,9.24 C66.04,9.24 62.94,14.71 61.09,23.7 L64.43,28.75 L68.1,13.28 Z" fill="#004DAE"/>
  <path d="M36.76,52.36 L32.39,48.46 C23.16,49.03 17.27,51.31 17.27,51.31 L21.86,54.49 C25.12,52.96 36.76,52.36 36.76,52.36 Z" fill="#004DAE"/>
  <path d="M16.94,31.57 C14.06,34.31 10.56,33.35 7.29,28.76 C4.02,24.17 0.96,15.56 9.83,8.22 C18.95,0.68 26.84,6.11 33.34,14 C37.86,19.49 41.64,23.66 41.52,24.1 C41.4,24.54 34.57,30.73 33.85,30.68 C33.13,30.63 26.18,21.95 24.34,20 C22.5,18.05 19.35,13.67 15.7,16.99 C12.86,19.57 14.57,22.34 15.57,23.5 C16.57,24.66 20.64,28.05 16.94,31.57 Z" fill="#3F7377"/>
  <path d="M54.51,13.4 C49.24,19.25 48.32,35.29 47.08,36.36 C45.84,37.43 29.18,36.33 23.02,40.57 L26.24,43.28 C26.24,43.28 30.67,41.82 42.52,41.13 C46.63,40.89 48.33,40.72 49.77,39.48 C51.22,38.23 51.57,36.57 52.44,32.56 C53.07,29.63 54.41,20.24 56.66,16.77 L54.51,13.4 Z" fill="#004DAE"/>
</svg>
